!!!OTL: Die schoene Magdalena Was geschah an einem Montag,
!!!ARE: Europa, Osteuropa, UdSSR, Ukraine, Zaporoze, Viktoriafeld
!!!YOR: 6, S. 74
!!    1944 aufgezeichnet
!!!SCT: Q0125G
!!!YEM: Copyright 1995, estate of Helmut Schaffrath.
**kern
*ICvox
*Ivox
*M6/8
*k[f#]
*G:
{16d
16d
=1
4g
8g
8g
8ee
8dd
=2
8b
4g
4r}
{8dd
=3
8dd
8cc
8a
8f#
8dd
8cc
=4
4.b
4r}
{8dd
=5
8b
8a
8g
8f#
8ee
16dd
16cc
=6
8b
8dd}
{16cc
16b
8a
8cc
16b
16a
=7
4g
8a
4b}
{8d
=8
8g
8b
8ee
8dd
8cc
8f#
=9
4.g
4r}
==
!!!AGN: Ballade, verbotene Liebe, Flucht, Vierte Zeile = refrainartig auf Wortwiederholungen.
!!!ONB: ESAC (Essen Associative Code) Database: BALLADE
!!!AMT: compound duple
!!!AIN: vox
!!!EED: Helmut Schaffrath
!!!EEV: 1.0
*-
